res/skins/Deere/icon/ic_radio_button_on_48px.svg

<svg xmlns:rdf="http://www.w3.org/1999/02/22-rdf-syntax-ns#" xmlns="http://www.w3.org/2000/svg" version="1.1" xmlns:cc="http://creativecommons.org/ns#" xmlns:dc="http://purl.org/dc/elements/1.1/" viewBox="0 0 48 48">
 <path fill="#848484" d="m24 14c-5.52 0-10 4.48-10 10s4.48 10 10 10 10-4.48 10-10-4.48-10-10-10zm0-10c-11.05 0-20 8.95-20 20s8.95 20 20 20 20-8.95 20-20-8.95-20-20-20zm0 36c-8.84 0-16-7.16-16-16s7.16-16 16-16 16 7.16 16 16-7.16 16-16 16z"/>
 <path d="m0 0h48v48h-48z" fill="none"/>
</svg>

<?xml version="1.0" encoding="UTF-8" standalone="no"?>
<svg
   xmlns:dc="http://purl.org/dc/elements/1.1/"
   xmlns:cc="http://creativecommons.org/ns#"
   xmlns:rdf="http://www.w3.org/1999/02/22-rdf-syntax-ns#"
   xmlns:svg="http://www.w3.org/2000/svg"
   xmlns="http://www.w3.org/2000/svg"
   xmlns:sodipodi="http://sodipodi.sourceforge.net/DTD/sodipodi-0.dtd"
   xmlns:inkscape="http://www.inkscape.org/namespaces/inkscape"
   version="1.1"
   viewBox="0 0 48 48"
   id="svg2"
   inkscape:version="0.91 r13725"
   sodipodi:docname="ic_radio_button_on_48px.svg">
  <metadata
     id="metadata12">
    <rdf:RDF>
      <cc:Work
         rdf:about="">
        <dc:format>image/svg+xml</dc:format>
        <dc:type
           rdf:resource="http://purl.org/dc/dcmitype/StillImage" />
      </cc:Work>
    </rdf:RDF>
  </metadata>
  <defs
     id="defs10" />
  <sodipodi:namedview
     pagecolor="#ffffff"
     bordercolor="#666666"
     borderopacity="1"
     objecttolerance="10"
     gridtolerance="10"
     guidetolerance="10"
     inkscape:pageopacity="0"
     inkscape:pageshadow="2"
     inkscape:window-width="1366"
     inkscape:window-height="702"
     id="namedview8"
     showgrid="false"
     inkscape:zoom="4.9166667"
     inkscape:cx="-14.237288"
     inkscape:cy="24.813559"
     inkscape:window-x="0"
     inkscape:window-y="27"
     inkscape:window-maximized="1"
     inkscape:current-layer="svg2" />
  <path
     d="m 24,14 c -5.52,0 -10,4.48 -10,10 0,5.52 4.48,10 10,10 5.52,0 10,-4.48 10,-10 C 34,18.48 29.52,14 24,14 Z M 24,4 C 12.95,4 4,12.95 4,24 4,35.05 12.95,44 24,44 35.05,44 44,35.05 44,24 44,12.95 35.05,4 24,4 Z m 0,36 C 15.16,40 8,32.84 8,24 8,15.16 15.16,8 24,8 c 8.84,0 16,7.16 16,16 0,8.84 -7.16,16 -16,16 z"
     id="path4"
     inkscape:connector-curvature="0"
     style="fill:#d2d2d2;fill-opacity:1" />
  <path
     d="m0 0h48v48h-48z"
     fill="none"
     id="path6" />
</svg>
